static/images/contact/hero-blue-vector.svg

<svg width="120" height="175" viewBox="0 0 120 175" fill="none" xmlns="http://www.w3.org/2000/svg">
<path d="M36.7604 103.883C36.8211 104.814 36.2077 105.974 36.7834 106.779C38.487 108.355 39.3241 111.417 42.0076 111.273C43.7799 112.917 44.7969 116.216 47.5594 116.156C48.3078 117.075 49.0662 118.006 49.7817 118.886C50.4215 118.999 51.003 119.103 51.5841 119.206C52.5752 120.292 52.4003 120.827 54.3571 121.098C55.2423 121.617 55.7578 122.363 56.9153 122.229C58.5416 123.439 58.3092 124.436 60.8385 124.331C62.2219 124.055 62.2781 125.225 63.399 125.459C64.3276 125.3 64.8461 125.877 65.3615 126.487C66.4804 126.749 67.8646 126.505 68.8587 127.04C69.4874 128.109 70.5808 127.866 71.5232 127.967C72.3358 128.054 73.1028 128.12 73.5392 128.936C75.9755 129.985 75.9864 129.976 76.8232 131.055C78.5793 131.394 80.3984 131.242 82.1134 131.807C83.0964 133.235 84.6875 132.499 85.9653 132.877C87.1631 134.739 89.9915 133.222 91.097 135.111C93.4646 135.752 96.7277 134.736 98.501 136.615C104.488 138.547 105.242 132.969 104.096 140.796C103.042 142.024 101.512 141.119 100.133 141.185C98.5691 142.222 96.7902 141.692 94.9966 141.504C94.3852 141.427 94.21 140.649 93.6323 140.53C92.4017 140.188 88.8318 140.462 88.4553 139.576C87.9144 138.722 86.9456 139.243 86.3151 138.842C85.7228 137.99 84.7907 137.864 83.7759 137.681C82.8783 135.891 78.413 137.152 77.7398 135.985C76.7495 134.797 75.5334 135.918 74.7613 134.269C73.2629 134.155 71.474 134.36 70.4592 133.055C69.0116 133.168 68.567 132.034 67.3087 131.838C66.5062 131.807 65.6831 131.779 64.9158 131.576C64.3968 131.439 64.2441 130.635 63.5474 130.605C62.9458 130.579 62.3461 130.498 61.7465 130.428C60.4771 130.678 60.3067 129.403 59.1847 129.295C58.8117 129.314 58.4298 129.15 58.0522 129.068C57.5586 127.937 56.2521 128.469 55.5495 127.859C54.9457 126.873 53.6556 127.384 53.0134 126.693C52.5096 125.855 51.6314 126.106 50.9116 125.875C50.1845 125.153 49.4874 124.733 48.3269 124.784C46.1367 121.348 45.8606 124.272 43.5009 120.864C40.1805 121.165 39.8989 115.865 36.7 115.875C34.2396 114.267 34.5437 112.042 31.104 111.015C30.0141 110.623 29.8165 108.695 28.4047 109.131C27.8144 109.836 27.0572 109.842 26.2385 109.689C25.6329 109.499 25.2855 110.36 24.7041 110.372C21.2319 109.737 17.2099 110.452 14.3403 108.471C13.2406 108.223 11.7346 108.674 10.9874 107.652C10.4392 106.736 9.06402 107.543 8.45144 106.477C6.26448 102.89 1.62299 100.096 1.34381 95.8192C0.496692 94.5164 -1.20105 93.5218 -0.602207 91.7489C-1.14257 90.8777 -1.44531 90.0803 -1.19123 89.0152C-2.11567 87.3841 -2.92143 87.5208 -2.54006 85.3559C-2.70656 84.8297 -3.42264 84.5513 -3.22369 83.8094C-3.12324 83.4353 -3.03145 82.9669 -3.17117 82.6426C-3.90227 81.8962 -3.80394 80.9423 -3.78905 79.9176C-4.50264 79.3215 -4.43633 78.5473 -4.30705 77.7428C-5.6139 75.2943 -4.32308 72.3305 -4.31773 69.6096C-4.24902 68.8537 -3.92684 68.0653 -4.62184 67.3691C-5.24645 66.1946 -4.1818 62.0446 -4.19505 60.2641C-4.86529 59.6857 -5.15682 59.0048 -4.82212 58.1454C-4.59111 57.2815 -5.75133 56.9358 -5.50333 55.9996C-4.60874 48.6472 -3.98309 41.1909 -3.16222 33.819C-0.997064 32.2108 -2.85205 28.6346 -0.739368 26.8813C-0.182079 24.9699 -1.08136 22.4219 0.79734 21.1926C1.22448 19.3077 0.414518 16.4937 2.38148 15.2393C3.17274 14.716 3.13014 14.6494 3.21282 13.7963C3.19768 12.0298 3.65862 10.7098 5.24653 9.82254C5.33906 9.23897 5.43207 8.65507 5.52684 8.05409C7.70061 6.28454 9.88476 4.50652 12.0783 2.72089C12.654 2.75581 13.2467 2.79159 13.8396 2.82738C14.7318 1.73469 15.9916 2.32579 17.2774 2.36102C17.7582 3.1389 19.4935 4.24015 18.4997 5.23781C16.1705 7.16119 13.8462 9.0915 11.4664 10.9508C10.6269 11.6069 10.0336 12.2918 10.1202 13.4037C9.44156 14.1729 8.93665 14.8607 8.98124 15.9632C8.89857 16.3111 8.32152 16.5128 8.17429 16.7862C8.00422 17.8008 8.0356 18.7862 6.96351 19.3074C6.87828 19.8951 6.79302 20.4829 6.70779 21.0707C4.98548 22.1991 5.84397 24.8661 5.29051 26.6496C2.81807 29.2633 4.95208 33.9851 2.8048 36.7169C2.27149 37.6195 2.0064 39.1628 2.69846 40.0321C3.24368 40.6952 3.18793 40.9455 2.56695 41.5407C0.814809 45.2322 1.52945 50.3175 0.713098 54.4758C2.00129 56.7065 0.83233 59.4915 0.767366 62.0076C0.662 62.6897 1.34423 62.9996 1.45044 63.5468C1.52348 63.9247 1.36128 64.342 1.35361 64.7427C1.33885 65.5178 0.971515 66.2939 1.34416 67.0686C2.3856 68.03 1.22058 69.3743 2.36082 70.2507C2.59116 72.609 1.61654 75.0027 1.92384 77.3577C2.64744 77.9652 2.48642 78.7565 2.39619 79.5456C2.39277 80.133 3.1708 80.4818 3.08252 81.0782C3.0862 82.6155 3.057 82.6401 3.99116 83.706C5.06643 85.3727 3.71993 87.6139 4.01152 89.4991C5.3516 91.711 7.64623 92.4956 7.60635 95.4161C8.4735 97.532 10.5814 99.1726 11.8956 101.104C12.372 101.692 12.3693 101.693 14.3224 102.472C15.8688 103.25 16.7455 106.879 18.7415 104.63C20.9422 104.853 23.143 105.075 25.3433 105.297C28.9826 103.109 21.6029 100.557 22.8222 97.5891C23.3845 95.5966 22.388 94.7162 21.226 93.4281C20.2883 92.4509 21.4204 91.0623 20.2075 90.2389C20.3186 89.2076 20.4849 88.2631 19.579 87.5507C19.6774 85.9342 20.2375 84.3347 19.195 82.986C19.6313 78.7949 20.0671 74.6042 20.496 70.4799C21.6177 69.453 22.3391 69.4941 22.5 67.6606C22.6014 67.0168 23.3047 66.8309 23.4893 66.2933C23.6718 63.4577 27.2718 62.3714 29.0397 60.4038C29.3311 60.1634 29.4168 59.7616 29.38 59.3247C29.6157 57.605 31.8999 56.7674 33.061 55.6188C35.465 55.8896 36.7613 54.0236 38.5756 52.6528C39.1676 52.6751 39.7597 52.6975 40.4001 52.7218C41.3336 52.036 42.1117 50.8195 43.4236 51.3448C44.8477 51.5855 45.6589 48.7721 46.9239 50.303C47.5516 51.3729 48.7339 50.5664 49.4758 51.4653C50.1908 52.4329 50.9396 53.3854 51.7614 54.2614C52.6275 55.4108 51.4573 56.429 52.7511 57.4718C52.9105 60.4998 50.9865 64.2455 52.6299 66.8894C52.3887 69.2083 52.1163 71.6002 51.9049 73.9969C50.3465 76.0412 50.5318 78.7908 50.3008 81.3564C50.3486 82.3199 49.2218 82.4483 49.1846 83.3197C49.1426 84.3111 48.9519 85.2966 48.825 86.2845C47.8343 86.7886 47.9024 87.8393 47.6322 88.8106C46.3093 89.43 47.2066 91.0864 45.9719 91.719C44.9915 92.2606 44.641 93.0978 44.6268 94.1656C44.4501 94.7101 43.7406 94.8901 43.636 95.5318C43.5285 98.2829 40.162 98.0301 40.517 100.82C39.269 101.841 38.0192 102.858 36.7604 103.883ZM25.8233 77.0376C25.87 78.4721 25.0378 80.3117 25.684 81.6385C26.5523 82.7004 25.7127 84.3793 25.7915 85.6707C25.7576 86.4272 25.38 87.2185 26.0874 87.907C26.7789 88.7363 25.7289 89.8436 26.7318 90.6127C28.0598 91.5084 27.7139 94.2805 28.5231 94.7108C29.5302 96.4742 32.1183 97.9086 32.0055 100.04C31.8542 100.581 31.9335 100.825 32.3604 100.862C33.8484 100.568 34.8951 98.9158 36.1969 98.1274C36.9792 97.4702 36.291 96.1465 37.3749 95.5908C39.0543 95.0156 38.2341 93.1842 39.4983 92.3055C39.6302 92.2293 39.6932 91.9878 39.7332 91.8103C39.7139 89.7697 41.8694 89.768 41.8476 87.8963C41.706 87.1269 42.4601 86.9488 42.7992 86.5106C43.1897 85.0148 42.7457 83.1633 44.1731 82.1845C44.2566 81.3862 44.4379 80.5822 44.3963 79.7906C44.3476 78.8559 45.3789 78.5611 45.4623 77.8291C45.6765 72.5334 47.5822 66.9802 46.2509 61.923C46.3151 60.2587 47.3632 58.0687 45.9967 56.7934C44.6068 56.6332 43.2169 56.4739 41.8482 56.3167C40.8018 56.9347 39.9577 57.7995 38.9949 58.5318C38.4044 58.5113 37.8144 58.4904 37.1634 58.4677C36.2653 59.1988 35.3183 59.9697 34.4136 60.7061C34.3293 61.2931 34.2451 61.88 34.1566 62.4907C32.6153 63.7454 31.0603 65.0112 29.518 66.2667C29.5436 67.4112 29.2327 68.129 28.4046 68.8491C28.2622 69.6018 28.3515 70.3694 27.5983 70.9654C26.2936 72.6356 27.8954 75.774 25.8233 77.0376Z" fill="#0BA6E2"/>
<path d="M95.664 150.603L101.891 128.024L116.911 146.727L95.664 150.603Z" fill="#0BA6E2"/>
<path d="M102.842 131.6C102.776 131.547 102.779 131.396 102.723 131.317C102.486 130.986 102.444 130.826 102.243 130.516C101.946 130.055 100.833 128.873 101.36 128.45C101.36 128.45 101.36 128.45 101.36 128.45C101.365 128.446 101.371 128.442 101.376 128.438C101.48 128.362 101.676 128.381 101.802 128.306C101.929 128.23 102.652 127.63 102.816 127.749C103.048 127.926 103.285 128.607 103.388 128.719C103.459 128.795 103.605 128.84 103.7 128.934C104.005 129.235 104.096 129.448 104.517 129.602C104.518 129.799 104.519 129.995 104.519 130.191C104.689 130.312 104.753 130.65 104.836 130.739C104.905 130.812 105.017 130.797 105.085 130.876C105.163 130.963 105.194 131.168 105.339 131.324C105.577 131.58 105.812 131.47 105.968 131.613C106.129 131.761 106.233 132.109 106.476 132.269C106.519 132.279 106.562 132.288 106.606 132.298C106.639 132.239 106.673 132.181 106.706 132.122C106.816 132.212 106.753 132.339 106.831 132.441C106.923 132.56 107.067 132.543 107.13 132.622C107.181 132.687 107.175 132.836 107.247 132.916C107.352 133.033 107.441 132.918 107.514 132.968C107.543 132.987 107.994 133.424 108.017 133.451C108.188 133.655 108.052 133.794 108.172 133.971C108.506 134.461 109.008 134.835 109.396 135.225C109.569 135.398 109.72 135.604 109.848 135.813C109.222 135.824 109.453 136.726 109.858 135.994C109.942 136.274 110.225 136.293 110.358 136.515C110.444 136.659 110.432 136.816 110.583 136.999C110.851 137.323 111.376 137.49 111.022 137.93C111.407 138.254 111.519 138.713 112.01 138.547C112.113 138.627 112.091 139.063 112.149 139.199C112.205 139.328 112.752 140.217 112.852 140.354C112.952 140.491 113.132 140.727 113.255 140.812C113.408 140.918 113.88 140.7 113.62 141.318C113.89 141.578 113.959 141.692 114.122 142.004C114.151 142.06 114.087 142.121 114.11 142.149C114.157 142.208 114.288 142.267 114.378 142.367C114.527 142.531 114.462 142.745 114.666 142.549C114.794 142.633 114.922 142.717 115.05 142.801C115.039 142.875 115.029 142.948 115.019 143.022C115.114 143.046 115.208 143.069 115.303 143.093C114.928 143.277 115.459 143.554 115.53 143.268C115.641 143.541 115.752 143.814 115.863 144.087C115.477 144.346 116.209 144.603 116.371 144.402C116.391 144.428 116.411 144.453 116.431 144.479C116.512 144.776 116.753 144.915 116.904 145.236C117.055 145.556 117 145.559 116.899 145.775C116.959 145.83 117.02 145.886 117.08 145.941C117.513 145.921 117.386 146.119 117.388 146.344L118.014 147.187L117.021 147.329C116.888 147.259 116.718 147.235 116.464 147.464C116.169 147.144 115.639 147.437 115.285 147.615C115.244 147.635 115.256 147.705 115.202 147.738C115.069 147.816 114.691 147.791 114.745 148.015C114.607 147.973 114.47 147.93 114.333 147.888C114.238 147.947 114.143 148.007 114.048 148.067C114.062 148.138 114.075 148.208 114.089 148.279C113.839 148.075 113.532 148.227 113.361 148.199C113.327 148.193 113.303 148.097 113.199 148.088C113.078 148.078 112.868 148.146 112.724 148.14C112.691 148.258 112.657 148.376 112.623 148.493C112.387 148.597 112.249 148.328 112.1 148.332C112.074 148.333 111.602 148.44 111.578 148.451C111.377 148.537 111.481 148.769 110.866 148.828C110.756 148.838 110.653 148.77 110.555 148.784C110.382 148.81 109.898 149.095 109.889 149.278C109.64 149.096 109.097 149.288 108.921 149.254C108.868 149.244 108.831 149.106 108.673 149.104C108.545 149.102 108.246 149.272 108.086 149.282C107.915 149.292 107.834 149.185 107.758 149.19C107.686 149.196 107.638 149.303 107.542 149.32C107.241 149.371 106.942 149.267 106.704 149.308C106.36 149.366 106.108 149.703 105.844 149.88C105.769 149.875 105.688 149.828 105.613 149.841C104.688 150 103.636 150.139 102.698 150.247C102.262 150.298 101.122 150.111 101.524 150.697C101.395 150.836 100.261 150.777 100.053 150.811C99.846 150.845 99.7029 150.989 99.5407 151.02C99.0511 151.115 98.6907 151.095 98.1119 151.304C97.9624 151.358 97.8219 151.524 97.7303 151.539C97.6199 151.557 97.4777 151.447 97.3337 151.465C96.9906 151.508 96.3655 151.667 96.0355 151.703C95.9753 151.71 95.9334 151.599 95.842 151.578L94.2402 151.805L94.708 150.339C94.7081 150.339 94.7082 150.339 94.7082 150.339C94.9355 150.052 95.0239 149.685 94.6462 149.65C94.9653 149.29 94.8851 148.854 94.98 148.465C95.1816 147.643 95.6753 146.18 95.7199 145.428C95.7481 144.954 95.5834 144.921 95.9046 144.3C95.9759 144.162 96.0578 144.028 96.1436 143.86C96.3452 143.468 96.7487 143.168 96.4768 142.752C96.6975 142.316 96.7329 141.929 97.1349 141.671C97.0723 141.61 97.0097 141.549 96.9472 141.489C96.961 141.431 96.9748 141.374 96.9886 141.317C97.0638 141.319 97.139 141.321 97.2142 141.322C97.3451 140.921 97.1981 140.327 97.295 139.984C97.4572 139.408 97.9787 137.955 98.2243 137.435C98.3547 137.159 98.2084 137.102 98.5637 137.021C98.5601 136.95 98.5564 136.879 98.5528 136.808C98.4962 136.749 98.4396 136.69 98.383 136.631C98.483 136.258 98.71 135.845 98.8067 135.49C98.9827 134.844 99.0636 133.822 99.3651 133.207C99.4408 133.053 99.6367 132.888 99.679 132.729C99.7408 132.496 99.5244 132.376 99.6012 132.081C99.734 131.572 100.264 130.702 100.375 130.217C100.409 130.073 100.341 129.982 100.359 129.882C100.433 129.458 100.533 129.122 100.509 128.69C100.848 128.327 101.125 128.443 101.451 128.391C101.697 128.352 102.287 128.186 102.491 128.195C102.633 128.202 102.775 128.363 102.935 128.361C102.913 128.902 102.724 129.08 102.402 129.435C102.2 130.2 101.998 130.965 101.796 131.729C101.696 131.777 101.596 131.824 101.496 131.871C101.496 131.871 101.496 131.871 101.496 131.871C101.322 132.138 101.495 132.319 101.499 132.49C101.534 134.126 100.36 137.004 99.8501 138.654C99.7403 139.01 99.5275 140.207 99.3284 140.417C99.2767 140.471 99.1472 140.454 99.1231 140.521C99.0302 141.147 98.9372 141.773 98.8443 142.399C98.3073 143.59 98.1121 144.922 97.7959 146.185C97.4035 147.752 97.0167 149.314 96.6212 150.867L95.4858 149.626C97.3386 149.25 99.1855 148.891 101.033 148.571C101.693 148.457 102.511 148.209 103.167 148.153C103.441 148.129 103.59 148.313 103.916 148.096C103.93 148.15 103.943 148.205 103.957 148.259C104.253 148.136 104.428 147.975 104.771 147.9C105.061 147.836 105.83 147.687 106.091 147.661C106.226 147.647 106.195 147.759 106.32 147.736C106.532 147.695 106.962 147.47 107.256 147.417C107.522 147.368 107.993 147.405 108.194 147.35C108.921 147.155 109.692 146.833 110.486 146.736C110.706 146.71 111.009 146.792 111.077 146.776C111.208 146.744 111.224 146.608 111.31 146.575C111.748 146.408 112.482 146.433 112.928 146.358C114.168 146.149 115.462 145.873 116.714 145.648L116.056 147.413C115.922 147.245 115.789 147.077 115.659 146.909C115.091 146.178 114.11 144.994 113.652 144.266C113.554 144.109 113.697 144.057 113.6 143.936C113.493 143.802 113.359 143.791 113.302 143.733C112.912 143.335 112.068 142.442 111.818 141.971C111.77 141.881 111.813 141.754 111.775 141.708C111.756 141.684 111.653 141.679 111.588 141.61C111.008 141 110.661 140.496 110.167 139.839C109.221 138.581 107.968 137.25 106.994 135.913C106.782 135.621 106.801 135.289 106.768 135.251C106.695 135.167 106.533 135.206 106.363 135.053C105.799 134.546 105.294 133.66 104.789 133.153C104.54 132.902 104.089 132.645 103.839 132.401C103.64 132.207 103.29 131.651 103.148 131.608C103.062 131.582 102.913 131.657 102.842 131.6ZM110.643 137.274C110.41 137.398 110.902 137.666 110.889 137.428C110.886 137.374 110.704 137.242 110.643 137.274ZM104.295 149.619C104.313 149.691 104.331 149.763 104.349 149.835C104.41 149.792 104.471 149.75 104.533 149.707C104.487 149.67 104.442 149.633 104.396 149.596C104.362 149.604 104.329 149.611 104.295 149.619Z" fill="#0BA6E2"/>
</svg>

<svg xmlns="http://www.w3.org/2000/svg" width="120" height="175" fill="none" viewBox="0 0 120 175"><path fill="#0ba6e2" d="M36.76 103.883c.061.931-.552 2.091.023 2.896 1.704 1.576 2.541 4.638 5.225 4.494 1.772 1.644 2.789 4.943 5.551 4.883l2.223 2.73 1.802.32c.991 1.086.816 1.621 2.773 1.892.885.519 1.4 1.265 2.558 1.131 1.627 1.21 1.394 2.207 3.924 2.102 1.383-.276 1.44.894 2.56 1.128.929-.159 1.447.418 1.963 1.028 1.118.262 2.503.018 3.497.553.628 1.069 1.722.826 2.664.927.813.087 1.58.153 2.016.969 2.436 1.049 2.447 1.04 3.284 2.119 1.756.339 3.575.187 5.29.752.983 1.428 2.575.692 3.852 1.07 1.198 1.862 4.026.345 5.132 2.234 2.368.641 5.63-.375 7.404 1.504 5.987 1.932 6.741-3.646 5.595 4.181-1.054 1.228-2.584.323-3.963.389-1.564 1.037-3.343.507-5.136.319-.612-.077-.787-.855-1.365-.974-1.23-.342-4.8-.068-5.177-.954-.54-.854-1.51-.333-2.14-.734-.592-.852-1.524-.978-2.54-1.161-.897-1.79-5.362-.529-6.035-1.696-.99-1.188-2.207-.067-2.979-1.716-1.498-.114-3.287.091-4.302-1.214-1.447.113-1.892-1.021-3.15-1.217-.803-.031-1.626-.059-2.393-.262-.52-.137-.672-.941-1.369-.971-.601-.026-1.2-.107-1.8-.177-1.27.25-1.44-1.025-2.562-1.133-.373.019-.755-.145-1.133-.227-.493-1.131-1.8-.599-2.502-1.209-.604-.986-1.894-.475-2.537-1.166-.503-.838-1.382-.587-2.101-.818-.727-.722-1.425-1.142-2.585-1.091-2.19-3.436-2.466-.512-4.826-3.92-3.32.301-3.602-4.999-6.801-4.989-2.46-1.608-2.156-3.833-5.596-4.86-1.09-.392-1.287-2.32-2.7-1.884-.59.705-1.347.711-2.166.558-.605-.19-.953.671-1.534.683-3.472-.635-7.494.08-10.364-1.901-1.1-.248-2.605.203-3.353-.819-.548-.916-1.923-.109-2.536-1.175-2.187-3.587-6.828-6.381-7.107-10.658-.847-1.303-2.545-2.297-1.946-4.07-.54-.871-.843-1.669-.59-2.734-.924-1.63-1.73-1.494-1.348-3.66-.167-.525-.883-.804-.684-1.546.1-.374.193-.842.053-1.166-.731-.747-.633-1.7-.618-2.725-.714-.597-.647-1.37-.518-2.175-1.307-2.449-.016-5.412-.01-8.133.068-.756.39-1.545-.305-2.24-.624-1.175.44-5.325.427-7.106-.67-.578-.962-1.26-.627-2.119.23-.864-.93-1.21-.681-2.145.894-7.353 1.52-14.81 2.34-22.181 2.166-1.608.31-5.184 2.424-6.938.557-1.911-.342-4.46 1.536-5.688.427-1.885-.382-4.7 1.584-5.954.792-.523.75-.59.832-1.443-.015-1.766.446-3.086 2.034-3.973l.28-1.769 6.551-5.333 1.762.106c.892-1.092 2.152-.501 3.437-.466.481.778 2.217 1.88 1.223 2.877-2.33 1.923-4.654 3.853-7.034 5.713-.84.656-1.432 1.34-1.346 2.453-.678.769-1.183 1.457-1.139 2.56-.082.347-.66.549-.807.822-.17 1.015-.138 2-1.21 2.521l-.256 1.764c-1.723 1.128-.864 3.795-1.417 5.579-2.473 2.613-.339 7.335-2.486 10.067-.534.903-.799 2.446-.107 3.315.546.663.49.914-.131 1.509C.815 45.232 1.529 50.318.713 54.476c1.288 2.23.12 5.016.054 7.532-.105.682.577.992.683 1.539.073.378-.089.795-.096 1.196-.015.775-.382 1.55-.01 2.326 1.042.961-.123 2.305 1.017 3.182.23 2.358-.744 4.752-.437 7.107.723.607.562 1.398.472 2.188-.003.587.775.936.687 1.532.003 1.537-.026 1.562.908 2.628 1.075 1.667-.271 3.908.02 5.793 1.34 2.212 3.635 2.997 3.595 5.917.867 2.116 2.975 3.757 4.29 5.688.476.588.473.589 2.426 1.368 1.547.778 2.424 4.407 4.42 2.158l6.601.667c3.64-2.188-3.74-4.74-2.52-7.708.561-1.992-.435-2.873-1.597-4.16-.938-.978.194-2.367-1.018-3.19.11-1.031.277-1.976-.629-2.688.098-1.617.659-3.216-.384-4.565l1.301-12.506c1.122-1.027 1.843-.986 2.004-2.82.101-.643.805-.83.99-1.367.182-2.835 3.782-3.922 5.55-5.89.291-.24.377-.641.34-1.078.236-1.72 2.52-2.558 3.681-3.706 2.404.27 3.7-1.595 5.515-2.966l1.824.069c.934-.686 1.712-1.903 3.024-1.377 1.424.24 2.235-2.573 3.5-1.042.628 1.07 1.81.263 2.552 1.162.715.968 1.464 1.92 2.285 2.796.866 1.15-.304 2.168.99 3.21.16 3.029-1.764 6.775-.121 9.418-.241 2.32-.514 4.711-.725 7.108-1.559 2.044-1.373 4.794-1.604 7.36.048.963-1.08 1.091-1.116 1.963-.042.991-.233 1.977-.36 2.965-.99.504-.923 1.554-1.193 2.526-1.323.619-.425 2.275-1.66 2.908-.98.542-1.331 1.379-1.345 2.447-.177.544-.886.724-.991 1.366-.108 2.75-3.474 2.498-3.119 5.288-1.248 1.021-2.498 2.038-3.757 3.063M25.823 77.038c.047 1.434-.785 3.274-.139 4.6.868 1.062.029 2.741.107 4.033-.033.756-.411 1.547.296 2.236.692.83-.358 1.937.645 2.706 1.328.895.982 3.668 1.791 4.098 1.007 1.763 3.595 3.198 3.482 5.329-.15.541-.072.785.355.822 1.488-.294 2.535-1.946 3.837-2.735.782-.657.094-1.98 1.178-2.536 1.68-.575.86-2.407 2.123-3.285.132-.077.195-.318.235-.496-.02-2.04 2.136-2.042 2.115-3.914-.142-.77.612-.947.951-1.385.39-1.496-.053-3.348 1.374-4.326.084-.799.265-1.603.223-2.394-.048-.935.983-1.23 1.066-1.962.214-5.296 2.12-10.849.789-15.906.064-1.664 1.112-3.854-.254-5.13-1.39-.16-2.78-.32-4.149-.476-1.046.618-1.89 1.483-2.853 2.215l-1.832-.064-2.75 2.238-.256 1.785-4.639 3.776c.026 1.144-.285 1.862-1.113 2.582-.143.753-.053 1.52-.807 2.116-1.304 1.67.297 4.809-1.775 6.073"/><path fill="#0ba6e2" d="m95.664 150.603 6.227-22.579 15.02 18.703z"/><path fill="#0ba6e2" d="M102.842 131.6c-.066-.053-.063-.204-.119-.283-.237-.331-.279-.491-.48-.801-.297-.461-1.41-1.643-.883-2.066l.016-.012c.104-.076.3-.057.426-.132.127-.076.85-.676 1.014-.557.232.177.469.858.572.97.071.076.217.121.312.215.305.301.396.514.817.668l.002.589c.17.121.234.459.317.548.069.073.181.058.249.137.078.087.109.292.254.448.238.256.473.146.629.289.161.148.265.496.508.656l.13.029.1-.176c.11.09.047.217.125.319.092.119.236.102.299.181.051.065.045.214.117.294.105.117.194.002.267.052.029.019.48.456.503.483.171.204.035.343.155.52.334.49.836.864 1.224 1.254.173.173.324.379.452.588-.626.011-.395.913.01.181.084.28.367.299.5.521.086.144.074.301.225.484.268.324.793.491.439.931.385.324.497.783.988.617.103.08.081.516.139.652.056.129.603 1.018.703 1.155s.28.373.403.458c.153.106.625-.112.365.506.27.26.339.374.502.686.029.056-.035.117-.012.145.047.059.178.118.268.218.149.164.084.378.288.182l.384.252-.031.221.284.071c-.375.184.156.461.227.175l.333.819c-.386.259.346.516.508.315l.06.077c.081.297.322.436.473.757.151.32.096.323-.005.539l.181.166c.433-.02.306.178.308.403l.626.843-.993.142c-.133-.07-.303-.094-.557.135-.295-.32-.825-.027-1.179.151-.041.02-.029.09-.083.123-.133.078-.511.053-.457.277l-.412-.127-.285.179.041.212c-.25-.204-.557-.052-.728-.08-.034-.006-.058-.102-.162-.111-.121-.01-.331.058-.475.052l-.101.353c-.236.104-.374-.165-.523-.161a9 9 0 0 0-.522.119c-.201.086-.097.318-.712.377-.11.01-.213-.058-.311-.044-.173.026-.657.311-.666.494-.249-.182-.792.01-.968-.024-.053-.01-.09-.148-.248-.15-.128-.002-.427.168-.587.178-.171.01-.252-.097-.328-.092-.072.006-.12.113-.216.13-.301.051-.6-.053-.838-.012-.344.058-.596.395-.86.572-.075-.005-.156-.052-.231-.039-.925.159-1.977.298-2.915.406-.436.051-1.576-.136-1.174.45-.129.139-1.263.08-1.471.114-.207.034-.35.178-.512.209-.49.095-.85.075-1.43.284-.149.054-.29.22-.38.235-.111.018-.253-.092-.397-.074-.343.043-.969.202-1.299.238-.06.007-.102-.104-.193-.125l-1.602.227.468-1.466c.228-.287.316-.654-.062-.689.32-.36.24-.796.334-1.185.202-.822.695-2.285.74-3.037.028-.474-.137-.507.185-1.128.07-.138.153-.272.239-.44.201-.392.605-.692.333-1.108.22-.436.256-.823.658-1.081l-.188-.182.042-.172.225.005c.131-.401-.016-.995.081-1.338.162-.576.684-2.029.93-2.549.13-.276-.017-.333.339-.414l-.011-.213-.17-.177c.1-.373.327-.786.424-1.141.176-.646.257-1.668.558-2.283.076-.154.272-.319.314-.478.062-.233-.155-.353-.078-.648.133-.509.663-1.379.774-1.864.034-.144-.034-.235-.016-.335.074-.424.174-.76.15-1.192.339-.363.616-.247.942-.299.246-.039.836-.205 1.04-.196.142.007.284.168.444.166-.022.541-.211.719-.533 1.074l-.606 2.294-.3.142c-.174.267-.001.448.003.619.035 1.636-1.139 4.514-1.649 6.164-.11.356-.322 1.553-.522 1.763-.051.054-.18.037-.205.104l-.279 1.878c-.537 1.191-.732 2.523-1.048 3.786-.393 1.567-.78 3.129-1.175 4.682l-1.135-1.241c1.853-.376 3.7-.735 5.547-1.055.66-.114 1.478-.362 2.134-.418.274-.024.423.16.749-.057l.041.163c.296-.123.471-.284.814-.359.29-.064 1.059-.213 1.32-.239.135-.014.104.098.229.075.212-.041.642-.266.936-.319.266-.049.737-.012.938-.067.727-.195 1.498-.517 2.292-.614.22-.026.523.056.591.04.131-.032.147-.168.233-.201.438-.167 1.172-.142 1.618-.217 1.24-.209 2.534-.485 3.786-.71l-.658 1.765a44 44 0 0 1-.397-.504c-.568-.731-1.549-1.915-2.007-2.643-.098-.157.045-.209-.052-.33-.107-.134-.241-.145-.298-.203-.39-.398-1.234-1.291-1.484-1.762-.048-.09-.005-.217-.043-.263-.019-.024-.122-.029-.187-.098-.58-.61-.927-1.114-1.421-1.771-.946-1.258-2.199-2.589-3.173-3.926-.212-.292-.193-.624-.226-.662-.073-.084-.235-.045-.405-.198-.564-.507-1.069-1.393-1.574-1.9-.249-.251-.7-.508-.95-.752-.199-.194-.549-.75-.691-.793-.086-.026-.235.049-.306-.008m7.801 5.674c-.233.124.259.392.246.154-.003-.054-.185-.186-.246-.154m-6.348 12.345.054.216.184-.128-.137-.111z"/></svg>
